icon-themes/breeze_svg/cmd/lc_outlineexpand.svg

<svg viewBox="0 0 24 24" xmlns="http://www.w3.org/2000/svg"><path d="m5 4c-.5522847 0-1 .4477-1 1s.4477153 1 1 1 1-.4477 1-1-.4477153-1-1-1zm3 0v1h4 8v-1h-8zm0 2v1h4 5v-1h-5zm0 4v1h12v-1zm0 2v1h6v-1zm9 0v1h3v-1zm-12 5c-.5522847 0-1 .4477-1 1s.4477153 1 1 1 1-.4477 1-1-.4477153-1-1-1zm3 0v1h4 1v-1h-1zm0 2v1h3 1 1v-1h-1-1z" fill="#4d4d4d"/><path d="m14 14v1 3h1 3v-3-1zm5 0v1 4h-3-1-1v1h1 1 4v-5-1z" fill="#1d99f3"/></svg>

<svg xmlns="http://www.w3.org/2000/svg" viewBox="0 0 24 24">
 <path 
     style="fill:#4d4d4d" 
     d="M 5 4 C 4.4477153 4 4 4.4477 4 5 C 4 5.5523 4.4477153 6 5 6 C 5.5522847 6 6 5.5523 6 5 C 6 4.4477 5.5522847 4 5 4 z M 8 4 L 8 5 L 12 5 L 20 5 L 20 4 L 12 4 L 8 4 z M 8 6 L 8 7 L 12 7 L 17 7 L 17 6 L 12 6 L 8 6 z M 8 10 L 8 11 L 20 11 L 20 10 L 8 10 z M 8 12 L 8 13 L 14 13 L 14 12 L 8 12 z M 17 12 L 17 13 L 20 13 L 20 12 L 17 12 z M 5 17 C 4.4477153 17 4 17.4477 4 18 C 4 18.5523 4.4477153 19 5 19 C 5.5522847 19 6 18.5523 6 18 C 6 17.4477 5.5522847 17 5 17 z M 8 17 L 8 18 L 12 18 L 13 18 L 13 17 L 12 17 L 8 17 z M 8 19 L 8 20 L 11 20 L 12 20 L 13 20 L 13 19 L 12 19 L 11 19 L 8 19 z "
     />
 <path 
     style="fill:#1d99f3" 
     d="M 14 14 L 14 15 L 14 18 L 15 18 L 18 18 L 18 15 L 18 14 L 14 14 z M 19 14 L 19 15 L 19 19 L 16 19 L 15 19 L 14 19 L 14 20 L 15 20 L 16 20 L 20 20 L 20 15 L 20 14 L 19 14 z "
     />
 </svg>
